X: 27461
T: Molly From Riverhead
R: reel
M: 4/4
K: Aminor
|:ccAB cde2|dBAB dBAB|ccAB cde2|dBBG A2A2:|
|:ggea gec2|dBBG dBBG|ggea gec2|dBBG A2A2:|

